X:75
M:6/8
L:1/8
K:Bb
|: f3 (f/e/dc) | c3 =B3 | Gfe dc=B | cGE C3 | e3 (e/d/cB) | B3 A3 | Fed cBA | BFD B,de |

